svgs/ytstudio.svg

<svg width="192" height="192" viewBox="0 0 192 192" fill="none" xmlns="http://www.w3.org/2000/svg"><path d="m157.024 136.645 2.979 5.209-2.979-5.209Zm-56.002 32.026 2.979 5.209-2.979-5.209Zm-10.044 0-2.979 5.209 2.979-5.209Zm-56.002-32.026-2.979 5.209 2.979-5.209Zm-5.022-8.616 6 .001v-.001h-6Zm0-64.052h6-6Zm5.022-8.616-2.979-5.209 2.979 5.209Zm56.002-32.026L88 18.126l2.978 5.209ZM96 22.002v6-6Zm5.022 1.333 2.979-5.209-2.979 5.209Zm56.002 32.026 2.979-5.209-2.979 5.209Zm5.022 8.616h-6 6Zm0 64.052h-6v.001l6-.001ZM82 70l3.158-5.101A6 6 0 0 0 76 70h6Zm0 52h-6a6 6 0 0 0 9.158 5.102L82 122Zm42-26 3.158 5.102a6 6 0 0 0 0-10.203L124 96Zm30.045 35.437-56.002 32.026 5.958 10.417 56.002-32.026-5.958-10.417Zm-56.001 32.026a4.12 4.12 0 0 1-2.044.541v12c2.805 0 5.564-.731 8.001-2.124l-5.958-10.417Zm-2.044.541a4.12 4.12 0 0 1-2.043-.541l-5.958 10.417A16.12 16.12 0 0 0 96 176.004v-12Zm-2.043-.541-56.002-32.026-5.958 10.417L88 173.88l5.958-10.417Zm-56.002-32.026a3.998 3.998 0 0 1-1.472-1.455l-10.367 6.043a16.001 16.001 0 0 0 5.881 5.829l5.958-10.417Zm-1.472-1.455a3.871 3.871 0 0 1-.529-1.952l-12-.001c0 2.811.747 5.569 2.162 7.996l10.367-6.043Zm-.529-1.953V63.977h-12v64.052h12Zm0-64.053c0-.681.181-1.355.53-1.952L26.115 55.98a15.876 15.876 0 0 0-2.162 7.996h12Zm.53-1.952a3.996 3.996 0 0 1 1.47-1.455l-5.957-10.417a15.996 15.996 0 0 0-5.881 5.829l10.367 6.043Zm1.47-1.455 56.003-32.026-5.958-10.417-56.002 32.026 5.958 10.417Zm56.003-32.026A4.118 4.118 0 0 1 96 28.002v-12c-2.805 0-5.564.731-8 2.124l5.957 10.417ZM96 28.002c.72 0 1.426.188 2.043.541l5.958-10.417A16.123 16.123 0 0 0 96 16.002v12Zm2.043.541 56.002 32.026 5.958-10.417-56.002-32.026-5.958 10.417Zm56.002 32.026a3.996 3.996 0 0 1 1.472 1.455l10.367-6.043a16.003 16.003 0 0 0-5.881-5.829l-5.958 10.417Zm1.472 1.455c.348.597.529 1.27.529 1.952h12c0-2.81-.747-5.568-2.162-7.995l-10.367 6.043Zm.529 1.953v64.052h12V63.977h-12Zm0 64.053c0 .682-.181 1.355-.529 1.952l10.367 6.043a15.873 15.873 0 0 0 2.162-7.996l-12 .001Zm-.529 1.952a3.998 3.998 0 0 1-1.472 1.455l5.958 10.417a16.008 16.008 0 0 0 5.881-5.829l-10.367-6.043ZM76 70v52h12V70H76Zm9.158 57.102 42-26-6.316-10.203-42 26 6.316 10.203Zm42-36.203-42-26-6.316 10.203 42 26 6.316-10.203Z" fill="#000"/></svg>

<?xml version="1.0" encoding="UTF-8" standalone="no"?><svg xmlns:android="http://schemas.android.com/apk/res/android" height="192" width="192" xmlns="http://www.w3.org/2000/svg">
  <path d="M157.024,136.645L160.003,141.854L160.003,141.854L157.024,136.645ZM101.022,168.671L104.001,173.88L104.001,173.88L101.022,168.671ZM90.978,168.671L87.999,173.88L87.999,173.88L90.978,168.671ZM34.976,136.645L31.997,141.854L31.997,141.854L34.976,136.645ZM29.954,128.029L35.954,128.03V128.029H29.954ZM29.954,63.977L35.954,63.977L35.954,63.976L29.954,63.977ZM34.976,55.361L31.997,50.152L31.997,50.152L34.976,55.361ZM90.978,23.335L87.999,18.126L87.999,18.126L90.978,23.335ZM96,22.002L96,28.002L96,22.002ZM101.022,23.335L104.001,18.126L104.001,18.126L101.022,23.335ZM157.024,55.361L160.003,50.152L160.003,50.152L157.024,55.361ZM162.046,63.977L156.046,63.976V63.977H162.046ZM162.046,128.029L156.046,128.029L156.046,128.03L162.046,128.029ZM82,70L85.158,64.899C83.308,63.753 80.982,63.699 79.08,64.759C77.179,65.818 76,67.824 76,70H82ZM82,122H76C76,124.177 77.179,126.183 79.08,127.242C80.982,128.301 83.308,128.247 85.158,127.102L82,122ZM124,96L127.158,101.102C128.925,100.008 130,98.078 130,96C130,93.922 128.925,91.992 127.158,90.899L124,96ZM154.045,131.437L98.043,163.463L104.001,173.88L160.003,141.854L154.045,131.437ZM98.044,163.463C97.426,163.816 96.721,164.004 96,164.004V176.004C98.805,176.004 101.564,175.273 104.001,173.88L98.044,163.463ZM96,164.004C95.279,164.004 94.574,163.816 93.957,163.463L87.999,173.88C90.436,175.273 93.195,176.004 96,176.004V164.004ZM93.957,163.463L37.955,131.437L31.997,141.854L87.999,173.88L93.957,163.463ZM37.955,131.437C37.337,131.084 36.832,130.58 36.483,129.982L26.116,136.025C27.531,138.452 29.561,140.46 31.997,141.854L37.955,131.437ZM36.483,129.982C36.135,129.385 35.954,128.712 35.954,128.03L23.954,128.029C23.954,130.84 24.701,133.598 26.116,136.025L36.483,129.982ZM35.954,128.029V63.977H23.954V128.029H35.954ZM35.954,63.976C35.954,63.294 36.135,62.621 36.483,62.024L26.116,55.981C24.701,58.408 23.954,61.166 23.954,63.977L35.954,63.976ZM36.483,62.024C36.832,61.426 37.337,60.922 37.955,60.569L31.997,50.152C29.561,51.546 27.531,53.554 26.116,55.981L36.483,62.024ZM37.955,60.569L93.957,28.543L87.999,18.126L31.997,50.152L37.955,60.569ZM93.956,28.543C94.574,28.19 95.279,28.002 96,28.002L96,16.002C93.195,16.002 90.436,16.733 87.999,18.126L93.956,28.543ZM96,28.002C96.721,28.002 97.426,28.19 98.044,28.543L104.001,18.126C101.564,16.733 98.805,16.002 96,16.002L96,28.002ZM98.043,28.543L154.045,60.569L160.003,50.152L104.001,18.126L98.043,28.543ZM154.045,60.569C154.663,60.922 155.168,61.426 155.517,62.024L165.884,55.981C164.469,53.554 162.439,51.546 160.003,50.152L154.045,60.569ZM155.517,62.024C155.865,62.621 156.046,63.294 156.046,63.976L168.046,63.977C168.046,61.166 167.299,58.408 165.884,55.981L155.517,62.024ZM156.046,63.977V128.029H168.046V63.977H156.046ZM156.046,128.03C156.046,128.712 155.865,129.385 155.517,129.982L165.884,136.025C167.299,133.598 168.046,130.84 168.046,128.029L156.046,128.03ZM155.517,129.982C155.168,130.58 154.663,131.084 154.045,131.437L160.003,141.854C162.439,140.46 164.469,138.452 165.884,136.025L155.517,129.982ZM76,70V122H88V70H76ZM85.158,127.102L127.158,101.102L120.842,90.899L78.842,116.899L85.158,127.102ZM127.158,90.899L85.158,64.899L78.842,75.102L120.842,101.102L127.158,90.899Z" fill="#000000"/>
</svg>
